X: 176
M: C|
L: 1/8
K: A
E |\
|: B |\
eaec eaec | (3(def) .B.B (3(def) .B.B |\
eaec eaec | dfec AA/A/ A :|

